X: 3
T: Father O'Grady's Visit To Bocca
R: reel
M: 4/4
L: 1/8
K: Dmaj
d3e fded|cAAG EG~G2|fded cAAG|EFGE D2de|
fded cAAG|EG~G2 A2de|fded cAAG|EFGE D4||
dcde fage|dfed cAFA|~G3A GE~E2|edcA GE~E2|
dcde fage|dfed cA~A2|fAdf gege|1 fagc dABG:|2 fagc dcde||

